!!!OTL: Canaday-I-O
!!!ARE: Canada
!!!AMD: Pentatonic
**kern
*>[A,A]
*>norep[A]
*>A
*clefG2
*k[b-]
*M2/4
*MM120
{8c/
=1
8f/L
8f/J
8f/L
8a/J
=2
16g/LL
16g/JJ
4f/}
{8a/
=3
8cc\L
8cc\J
8dd\L
8cc\J
=4
4.a/}
{8cc\
=5
8dd\L
8cc\J
8a/L
8f/J
=6
8g/L
8f/J
8d/L
8f/J
=7
8a/L
8f/J
8f/L
8g/J
=8
4.f/}
==
*-
